X: 27
T:Jacques Cartier
M:2/4
L:1/16
K:D
ag|fafd egec|Acec defd|Adfd gfed|ca^gb a3=g|
fafd egec|Acec defd|Adfd gfed|caec d2:|
|:AG|FAde fdAF|GBef gece|dfaf bgec|dfed cBAG|
FAde fdAF|GBef gece|dfaf bgec|daec d2:|
